X:1
T:Gabriel’s Message, 10.10.12.10
T:Gabriel’s Message, 10.10.12.10
T:Basque Carol
T:Courtesy of the Cyber Hymnal™
C:Basque Carol
Z:Courtesy of the Cyber Hymnal™
%%score ( 1 2 ) ( 3 4 )
L:1/8
Q:1/4=105
M:none
K:Bb
V:1 treble 
V:2 treble 
V:3 bass 
V:4 bass 
V:1
 [B,D] | [DG]2 [DB] [DA]2 [Dc] [DB]2 | [DA] [EG]3 [EA]3 [A,D]- | [A,D]4 D [DG]2 [DB] | %4
 [DA]2 [Dc] [DB]2 [DA] [EG]2- | [EG-] [DG]2 [DF] [DG]3- [DG]- | [DG][DB] [DB]2 [Dc] [DB]2 [DA] | %7
 [DB]2 [Fc] [Fd]2 [Fd] [Fc]2- | [Fc] [DB]3 [DA]3- [DA]- | [DA][DB] [Ec]2 [EB] [EA]2 [EG] | %10
 [DA]3 D3 [DG]2- | [DG] BAB [DG-]3 [DG]- | [DG][DF] [DG]6 |] %13
V:2
 x | x8 | x8 | x4 D x3 | x8 | x8 | x8 | x8 | x8 | x8 | x3 D3 x2 | x E3 x4 | x8 |] %13
V:3
 [B,,D,] | [G,B,]2 [G,B,] [D,A,]2 [D,A,] [G,B,]2 | [G,B,] [E,B,]3 [C,G,]3 [D,G,]- | %3
 [D,-G,]2 [D,^F,]2 [D,A,] [G,B,]2 [G,B,] | [D,A,]2 [D,A,] [G,B,]2 [G,B,] [E,B,]2- | %5
 [E,B,] [D,A,]2 [D,A,] [G,B,]3- [G,B,]- | [G,B,][G,B,] [G,B,]2 [D,A,] [G,B,]2 [^F,C] | %7
 [G,D]2 [A,C] B,2 B, [F,A,]2- | [F,A,] G,3 [D,A,]3- [D,A,]- | %9
 [D,A,][D,^A,] [C,G,]2 [C,G,] [E,C]2 [E,B,] | [D,A,]3 [D,A,]3 [G,B,]2- | %11
 [G,B,] [E,B,]3 [C,G,]3 [D,A,]- | [D,A,][D,A,] [G,,G,]6 |] %13
V:4
 x | x8 | x8 | x8 | x8 | x8 | x8 | x3 B,2 B, x2 | x G,3 x4 | x8 | x8 | x8 | x8 |] %13

